X:1
T:[ID 2-57]
T:[ID 2-57]
T:Bezeichnung standardisiert: Hessian Dance; Englisch In dieser Quelle auch als: Angeloise mit den St\"artken In dieser Quelle auch als: Schwabisch In dieser Quelle auch als: Englischer mit der St\"arkten
T:Urheber unbekannt Datum in der hier transkribierten schriftlichen Quelle: 1767
C:Urheber unbekannt
C:Datum in der hier transkribierten schriftlichen Quelle: 1767
L:1/8
M:3/8
K:G
V:1 treble 
V:1
 gdB | GFG | A2 F | G/F/G/A/G | gdB | GFG | AGF | G3 :: def | g2 e | a2 g | f/g/a/f/d | def | %13
 g2 c | BA/G/A/F/ | G2 :: g | d2 e | d2 c | BA/G/A/F/ | G2 g | d2 e | d2 c | BA/G/A/F/ | G3 :| %25

